X:1423
T:O Heiland, rei\ss die Himmmel auf
C:anon.
O:Germany
N:Written down 1666
R:Hymn
Z:Transcribed by Frank Nordberg - http://www.musicaviva.com
F:http://abc.musicaviva.com/tunes/germany/o-heiland-reiss-die-himmel.abc
M:3/4
L:1/4
Q:1/4=160
K:Ddor
D|F2G|A2D|FE2|D3|
w:O Hei-land, rei\ss die Him-mel auf,
AAB|c2F|AG2|F3|
w:her-ab, her-ab vom Him-mel lauf!
ccc|c2A|d2d|c3|
w:Rei\ss ab, om Him-mel Tor und T\"ur,
AAG|A2F|GE2|D2|]
w:rei\ss ab, wo Schlo\ss und Rie-gel f\"ur!
W:
W:O Heiland, rei\ss die Himmel auf,
W:herab, herab vom Himmel lauf!
W:Rei\ss ab, om Himmel Tor und T\"ur,
W:rei\ss ab, wo Schlo\ss und Riegel f\"ur!
W:
W:
W:  From Musica Viva - http://www.musicaviva.com
W:  the Internet center for free sheet music downloads.


